!!!COM: Anon.
!!!OTL: O que tens, o/ Juliana
!!!OTL: Romanceiro Folclorico do Brasil
!!!CNT: Brasil
!!!OCY: Brasil
!!!ODT: <1971///
!!!PSR: Irmaos Vitale
!!!PSP: Sao Paulo, Brasil
!!!PDT: 1951///
!!!PPE: Rossini Tavares de Lima
!!!PPG: page 7
!! Romance: Juliana E D. Jorge
!! Place: Sao Jose dos Campos, Sao Paulo, Brasil
**kern
*clefG2
*k[]
*M3/4
*MM100
8ee
8dd
=
4cc
4g
8b
8a
=
4g
4f
8dd
8cc
=
4b
4g
8a
8b
=
2cc
8g
8g
=
4ff
4dd
8cc
8dd
=
4ee
4cc
8b
8cc
=
8dd
8dd
4ff
8a
8b
=
2cc
==
*-
